apps/scalable/medit.svg

<svg xmlns="http://www.w3.org/2000/svg" style="isolation:isolate" width="256" height="256"><defs><filter id="a" width="400%" height="400%" x="-200%" y="-200%" color-interpolation-filters="sRGB" filterUnits="objectBoundingBox"><feGaussianBlur xmlns="http://www.w3.org/2000/svg" in="SourceGraphic" stdDeviation="4.294"/><feOffset xmlns="http://www.w3.org/2000/svg" dy="4" result="pf_100_offsetBlur"/><feFlood xmlns="http://www.w3.org/2000/svg" flood-opacity=".4"/><feComposite xmlns="http://www.w3.org/2000/svg" in2="pf_100_offsetBlur" operator="in" result="pf_100_dropShadow"/><feBlend xmlns="http://www.w3.org/2000/svg" in="SourceGraphic" in2="pf_100_dropShadow"/></filter></defs><g filter="url(#a)"><linearGradient id="b" x1=".978" x2="-.023" y1="1.003" y2=".022" gradientTransform="matrix(244.648 0 0 228.338 5.68 11.95)" gradientUnits="userSpaceOnUse"><stop offset="0%" stop-color="#4ce0c6"/><stop offset="100%" stop-color="#3b85b5"/></linearGradient><path fill="url(#b)" d="M165.689 11.95c74.056 0 84.639 10.557 84.639 84.544v59.251c0 73.986-10.583 84.543-84.639 84.543h-75.37c-74.055 0-84.639-10.557-84.639-84.543V96.494c0-73.987 10.584-84.544 84.639-84.544h75.37z"/></g><path fill="#FFF" d="M249.643 83.58L44.234 236.61c11.562 2.311 26.426 3.019 45.523 3.019h75.37c74.055 0 84.639-10.558 84.639-84.544V95.834c0-4.303-.041-8.37-.123-12.254z" opacity=".1"/><g opacity=".4"><linearGradient id="c" x1=".517" x2=".517" y2="1"><stop offset="0%" stop-color="#fff"/><stop offset="12.5%" stop-opacity=".098" stop-color="#fff"/><stop offset="92.5%" stop-opacity=".098"/><stop offset="100%" stop-opacity=".498"/></linearGradient><path fill="none" stroke="url(#c)" stroke-linecap="round" stroke-linejoin="round" stroke-width="4.077" d="M165.685 11.947c74.055 0 84.639 10.557 84.639 84.544v59.251c0 73.986-10.584 84.543-84.639 84.543h-75.37c-74.055 0-84.639-10.557-84.639-84.543V96.491c0-73.987 10.584-84.544 84.639-84.544h75.37z" vector-effect="non-scaling-stroke"/></g><g filter="url(#N7AYFXi35W9o0YOez32xGk7X9tkvJcDz)"><linearGradient id="d" x2="1" y1=".5" y2=".5" gradientTransform="matrix(24.731 24.195 -16.13 16.488 178.886 48.005)" gradientUnits="userSpaceOnUse"><stop offset="0%" stop-color="#fdc92b"/><stop offset="100%" stop-color="#ffda64"/></linearGradient><path fill="url(#d)" d="M191.252 60.102c-6.819-6.671-17.792-6.551-24.463.268l-2.016 2.061a2.88 2.88 0 0 0 .044 4.077l10.249 10.026 10.361 10.137a2.882 2.882 0 0 0 4.077-.045l2.016-2.061c6.671-6.819 6.551-17.792-.268-24.463z"/><path fill="#FFDA64" d="M112.798 156.788l-16.488-16.13-24.284 16.577-13.935 30.736 2.061 2.016 18.708-19.122c-.526-1.915-.075-4.047 1.41-5.565a5.774 5.774 0 0 1 8.154-.089 5.773 5.773 0 0 1 .09 8.154c-1.486 1.519-3.607 2.016-5.532 1.532l-18.708 19.122 2.061 2.017 30.423-14.606 16.04-24.642z"/><path fill="#FDC92B" d="M88.363 165.162l16.135-16.494-8.187-8.01-24.285 16.578-13.934 30.735 2.061 2.016 18.707-19.122c-.526-1.914-.075-4.046 1.41-5.564 2.204-2.254 5.816-2.306 8.093-.139z"/><linearGradient id="e" x1=".998" x2=".003" y1=".499" y2=".5" gradientTransform="matrix(24.732 24.195 -74.409 76.059 164.773 62.431)" gradientUnits="userSpaceOnUse"><stop offset="0%" stop-color="#fb7c38"/><stop offset="100%" stop-color="#f44920"/></linearGradient><path fill="url(#e)" d="M96.079 136.398l34.418-38.93 34.276-35.037 24.732 24.196-34.276 35.036-38.167 35.263a5.767 5.767 0 0 1-7.958-.102l-6.431-6.291-6.318-6.181a5.766 5.766 0 0 1-.276-7.954z"/><linearGradient id="f" x2="1" y1=".5" y2=".5" gradientTransform="matrix(28.853 28.227 -36.292 37.097 162.656 60.36)" gradientUnits="userSpaceOnUse"><stop offset="0%" stop-color="#bc1938"/><stop offset="100%" stop-color="#f22c42"/></linearGradient><path fill="url(#f)" d="M162.656 60.36l28.853 28.228-33.772 34.521a3.568 3.568 0 0 1-5.074.033l-23.494-23.399a3.645 3.645 0 0 1-.033-5.119l33.52-34.264z"/><path fill="#EAB305" d="M155.407 137.971a2.882 2.882 0 0 1-.045-4.077l36.293-37.097a2.887 2.887 0 0 0-.045-4.078l-30.97-30.298a2.88 2.88 0 0 1-.045-4.077 2.882 2.882 0 0 1 4.077-.045l30.971 30.299c3.409 3.335 3.469 8.822.134 12.232l-36.292 37.097a2.884 2.884 0 0 1-4.078.044z"/></g><defs><filter id="N7AYFXi35W9o0YOez32xGk7X9tkvJcDz" width="400%" height="400%" x="-200%" y="-200%" color-interpolation-filters="sRGB" filterUnits="objectBoundingBox"><feGaussianBlur xmlns="http://www.w3.org/2000/svg" in="SourceGraphic" stdDeviation="4.294"/><feOffset xmlns="http://www.w3.org/2000/svg" dy="4" result="pf_100_offsetBlur"/><feFlood xmlns="http://www.w3.org/2000/svg" flood-opacity=".4"/><feComposite xmlns="http://www.w3.org/2000/svg" in2="pf_100_offsetBlur" operator="in" result="pf_100_dropShadow"/><feBlend xmlns="http://www.w3.org/2000/svg" in="SourceGraphic" in2="pf_100_dropShadow"/></filter></defs></svg>

<svg xmlns="http://www.w3.org/2000/svg" style="isolation:isolate" width="256" height="256" viewBox="0 0 256 256">
 <defs>
  <filter id="iQa2lJttUaPdYFPplWH6gFFAkjLF5v6w" width="400%" height="400%" x="-200%" y="-200%" color-interpolation-filters="sRGB" filterUnits="objectBoundingBox">
   <feGaussianBlur xmlns="http://www.w3.org/2000/svg" in="SourceGraphic" stdDeviation="4.294"/>
   <feOffset xmlns="http://www.w3.org/2000/svg" dx="0" dy="4" result="pf_100_offsetBlur"/>
   <feFlood xmlns="http://www.w3.org/2000/svg" flood-opacity=".4"/>
   <feComposite xmlns="http://www.w3.org/2000/svg" in2="pf_100_offsetBlur" operator="in" result="pf_100_dropShadow"/>
   <feBlend xmlns="http://www.w3.org/2000/svg" in="SourceGraphic" in2="pf_100_dropShadow" mode="normal"/>
  </filter>
 </defs>
 <g filter="url(#iQa2lJttUaPdYFPplWH6gFFAkjLF5v6w)">
  <linearGradient id="_lgradient_18" x1=".978" x2="-.023" y1="1.003" y2=".022" gradientTransform="matrix(244.648,0,0,228.338,5.68,11.95)" gradientUnits="userSpaceOnUse">
   <stop offset="0%" style="stop-color:rgb(76,224,198)"/>
   <stop offset="100%" style="stop-color:rgb(59,133,181)"/>
  </linearGradient>
  <path fill="url(#_lgradient_18)" d="M 165.689 11.95 C 239.745 11.95 250.328 22.507 250.328 96.494 L 250.328 155.745 C 250.328 229.731 239.745 240.288 165.689 240.288 L 90.319 240.288 C 16.264 240.288 5.68 229.731 5.68 155.745 L 5.68 96.494 C 5.68 22.507 16.264 11.95 90.319 11.95 L 165.689 11.95 Z"/>
 </g>
 <g opacity=".1">
  <path fill="#FFFFFF" d="M 249.643 83.58 L 44.234 236.61 C 55.796 238.921 70.66 239.629 89.757 239.629 L 165.127 239.629 C 239.182 239.629 249.766 229.071 249.766 155.085 L 249.766 95.834 C 249.766 91.531 249.725 87.464 249.643 83.58 L 249.643 83.58 Z"/>
 </g>
 <g opacity=".4">
  <linearGradient id="_lgradient_19" x1=".517" x2=".517" y1="0" y2="1">
   <stop offset="0%" style="stop-color:rgb(255,255,255)"/>
   <stop offset="12.5%" stop-opacity=".098" style="stop-color:rgb(255,255,255)"/>
   <stop offset="92.5%" stop-opacity=".098" style="stop-color:rgb(0,0,0)"/>
   <stop offset="100%" stop-opacity=".498" style="stop-color:rgb(0,0,0)"/>
  </linearGradient>
  <path fill="none" stroke="url(#_lgradient_19)" stroke-linecap="round" stroke-linejoin="round" stroke-width="4.077" d="M 165.685 11.947 C 239.74 11.947 250.324 22.504 250.324 96.491 L 250.324 155.742 C 250.324 229.728 239.74 240.285 165.685 240.285 L 90.315 240.285 C 16.26 240.285 5.676 229.728 5.676 155.742 L 5.676 96.491 C 5.676 22.504 16.26 11.947 90.315 11.947 L 165.685 11.947 Z" vector-effect="non-scaling-stroke"/>
 </g>
 <g filter="url(#N7AYFXi35W9o0YOez32xGk7X9tkvJcDz)">
  <linearGradient id="_lgradient_20" x1="0" x2="1" y1=".5" y2=".5" gradientTransform="matrix(24.731,24.195,-16.13,16.488,178.886,48.005)" gradientUnits="userSpaceOnUse">
   <stop offset="0%" style="stop-color:rgb(253,201,43)"/>
   <stop offset="100%" style="stop-color:rgb(255,218,100)"/>
  </linearGradient>
  <path fill="url(#_lgradient_20)" d="M 191.252 60.102 C 184.433 53.431 173.46 53.551 166.789 60.37 L 164.773 62.431 L 164.773 62.431 C 163.658 63.57 163.678 65.394 164.817 66.508 L 175.066 76.534 L 185.427 86.671 C 186.566 87.785 188.39 87.765 189.504 86.626 L 191.52 84.565 C 198.191 77.746 198.071 66.773 191.252 60.102 Z"/>
  <path fill="#FFDA64" d="M 112.798 156.788 L 96.31 140.658 L 72.026 157.235 L 58.091 187.971 L 60.152 189.987 L 78.86 170.865 C 78.334 168.95 78.785 166.818 80.27 165.3 C 82.493 163.028 86.152 162.988 88.424 165.211 C 90.697 167.434 90.737 171.093 88.514 173.365 C 87.028 174.884 84.907 175.381 82.982 174.897 L 64.274 194.019 L 66.335 196.036 L 96.758 181.43 L 112.798 156.788 Z"/>
  <path fill="#FDC92B" d="M 88.363 165.162 L 104.498 148.668 L 96.311 140.658 L 72.026 157.236 L 58.092 187.971 L 60.153 189.987 L 78.86 170.865 C 78.334 168.951 78.785 166.819 80.27 165.301 C 82.474 163.047 86.086 162.995 88.363 165.162 Z"/>
  <linearGradient id="_lgradient_21" x1=".998" x2=".003" y1=".499" y2=".5" gradientTransform="matrix(24.732,24.195,-74.409,76.059,164.773,62.431)" gradientUnits="userSpaceOnUse">
   <stop offset="0%" style="stop-color:rgb(251,124,56)"/>
   <stop offset="100%" style="stop-color:rgb(244,73,32)"/>
  </linearGradient>
  <path fill="url(#_lgradient_21)" d="M 96.079 136.398 L 130.497 97.468 L 164.773 62.431 L 189.505 86.627 L 155.229 121.663 L 117.062 156.926 C 114.807 159.021 111.304 158.976 109.104 156.824 L 102.673 150.533 L 96.355 144.352 C 94.155 142.199 94.033 138.698 96.079 136.398 L 96.079 136.398 Z"/>
  <linearGradient id="_lgradient_22" x1="0" x2="1" y1=".5" y2=".5" gradientTransform="matrix(28.853,28.227,-36.292,37.097,162.656,60.36)" gradientUnits="userSpaceOnUse">
   <stop offset="0%" style="stop-color:rgb(188,25,56)"/>
   <stop offset="100%" style="stop-color:rgb(242,44,66)"/>
  </linearGradient>
  <path fill="url(#_lgradient_22)" d="M 162.656 60.36 L 191.509 88.588 L 157.737 123.109 C 156.346 124.53 154.073 124.545 152.663 123.142 L 129.169 99.743 C 127.76 98.339 127.745 96.045 129.136 94.624 L 162.656 60.36 Z"/>
  <path fill="#EAB305" d="M 155.407 137.971 C 154.268 136.857 154.248 135.033 155.362 133.894 L 191.655 96.797 C 192.767 95.66 192.747 93.832 191.61 92.719 L 160.64 62.421 C 159.5 61.307 159.48 59.483 160.595 58.344 C 161.709 57.205 163.533 57.185 164.672 58.299 L 195.643 88.598 C 199.052 91.933 199.112 97.42 195.777 100.83 L 159.485 137.927 C 158.37 139.065 156.546 139.085 155.407 137.971 Z"/>
 </g>
 <defs>
  <filter id="N7AYFXi35W9o0YOez32xGk7X9tkvJcDz" width="400%" height="400%" x="-200%" y="-200%" color-interpolation-filters="sRGB" filterUnits="objectBoundingBox">
   <feGaussianBlur xmlns="http://www.w3.org/2000/svg" in="SourceGraphic" stdDeviation="4.294"/>
   <feOffset xmlns="http://www.w3.org/2000/svg" dx="0" dy="4" result="pf_100_offsetBlur"/>
   <feFlood xmlns="http://www.w3.org/2000/svg" flood-opacity=".4"/>
   <feComposite xmlns="http://www.w3.org/2000/svg" in2="pf_100_offsetBlur" operator="in" result="pf_100_dropShadow"/>
   <feBlend xmlns="http://www.w3.org/2000/svg" in="SourceGraphic" in2="pf_100_dropShadow" mode="normal"/>
  </filter>
 </defs>
</svg>
